X:1
T:Dite mi o sì o no
T:Cristóbal de Morales  (c.1500-1553)
T:Included in Jacques Arcadelt's (1505-1568) fourth book of 4 part madrigals
T:Dite mi o sì o no
T:Four part madrigal
T:Copyright © 
T:Copyright © 
T:Copyright © 
C:Cristóbal de Morales  (c.1500-1553)
Z:Included in Jacques Arcadelt's (1505-1568)
Z:fourth book of 4 part madrigals
Z:Copyright ©
%%score [ 1 2 3 4 ]
L:1/8
M:2/2
K:C
V:1 treble nm="Soprano" snm="S."
V:2 treble nm="Alto" snm="A."
V:3 treble-8 transpose=-12 nm="Tenor" snm="T."
V:4 bass nm="Bass" snm="B."
V:1
 z8 | z8 | G3 G G2 G2 | A2 B2 c2 G2 | A2 B2 c4 | B4 z2 G2 | G2 G2 c4 | c4 z4 | z2 G2 G2 G2 | %9
w: ||Di- te mi o|sì, o no, sen-|za ti- mo-|re, ch'og-|nun de vo-|i,|ch'og- nun de|
 (c3 B) A2 d2- | dc BA G2 A2- | AG G4 ^F2 | G2 G2 z4 | z4 z2 G2 | A2 F2 G4- | G4 z2 B2- | %16
w: vo- * i, non|_ _ _ _ puo- se|_ _ no gio-|var- mi,|se|se- rà\_u no|_ mi|
 BB B2 c2 A2 | B8 | G2 A3 G FE | F4 E4- | E4 G4- | G2 G2 G4 | G8- | G8 | z8 | z2 c2 c2 B2 | %26
w: _ fa- rà grand' ho-|no-||* re|_ star|_ con- stan-|te|_||vo- len- do|
 c2 A2 (G3 A) | Bc d3 c c2- | c2 B2 c4 | z2 c4 c2 | A2 B2 c4- | c4 z4 | z4 z2 B2- | B2 B2 B4- | %34
w: voi las- ciar _|_ _ _ _ _|* * mi,|se se-|rà un si|_|fia'|l frut- to|
 B4 G4 | c6- B2 | A8 | ^G4 z2 =G2 | G4 G4 | A8 | G2 B2 B2 B2 | c4 B2 d2 | c2 B3 A A2- | AG G4 ^FE | %44
w: _ del|lan- *|gui-|re, as-|sai più|deg-|no as- sai, piu|deg- no che'l|mi- o ben *|* * vi- * *|
 ^F4 G4 | z2 e4 c2 | B2 G2 B4 | A2 G4 ^FE | ^F4 G2 d2 | c2 (e4 dc) | d2 (e3 d) c2- | c2 B2 c4- | %52
w: * re|dun- que|e- leg- ge|te _ _ _|_ _ quel|che più _ _|vi- e- * let-|* * ta|
 c4 z2 G2 | G2 G2 A4- | A4 G2 G2 | G2 G2 G2 G2 | A3 B c4 | z2 d2 c3 A | c8 | B4 z2 G2 | %60
w: _ che|l'un mi ho-|* no- ra|et l'al- tro mi|di- let- ta|che l'un mi\_ho-|no-|ra et|
 G2 G2 c3 B | AG G4 ^FE | ^F4 G4- | G8- | G4 z2 G2- | G2 G2 G4- | G4 G8- | G8- | G12 |] %69
w: l'al- tro mi _|_ _ _ di- *|let- ta,|_|* mi|_ di- let-|* ta.|_||
V:2
 D3 D D2 E2 | D2 D2 E4 | E3 E E2 E2 | F2 D2 C3 D | (E^F) G4 F2 | G2 D2 D2 D2 | E2 E2 z2 C2 | %7
w: Di- te mi o|sì, o no,|Di- te mi o|sì, o no, sen-|za _ ti- mo-|re, ch'og- nun de|vo- i, ch'og-|
 C2 C2 F4 | D4 z2 E2 | E2 E2 F4 | D4 D2 D2 | E2 E2 D4 | B,4 z4 | z4 z2 E2 | C2 D2 E4- | E4 z2 G2- | %16
w: nun de do-|i, ch'og-|nun de voi|non puo- se|non gio- var-|mi,|se|se- rà\_u no|_ mi|
 GG G2 E2 ^F2 | G4 F3 F | ED CG, A,B, C2- | C2 B,2 C4- | C4 E4- | E2 E2 E4 | D8 | z2 E2 E2 D2 | %24
w: _ fa- rà grand' ho-|no- * *||* * re|_ star|_ con- stan-|te|vo- len- do|
 E2 C2 D2 D2 | z4 z2 G2 | G2 ^F2 G2 E2 | D2 D2 z2 G2 | G4 E4 | z2 E4 E2 | F2 D2 E4- | E4 z4 | %32
w: voi las- ciar- mi,|vo-|len- do voi las-|sciar- mi, las-|ciar mi,|se se-|rà un si|_|
 z4 G4- | G2 G2 G4 | G4 E3 D | EF G2 C2 E2- | E2 DC D4 | E4 z2 E2 | E4 E4 | F8 | E2 G2 G2 G2 | %41
w: fia'|l frut- to|fia'l del _|_ _ _ lan- gui-||re, as-|sai più|deg-|no as- sai, piu|
 E3 F G2 F2 | E4 D2 C2 | F2 E2 D4- | D4 B,2 E2- | EE E2 E4 | D3 C D2 G,2 | A,2 B,2 C4 | C4 D4 | %49
w: deg- * * no|che'l mi- o|ben ser- vi-|* re dun-|* que e- leg-|ge- * te, dun-|que e- leg-|ge- te|
 E2 CD EF G2 | D2 G4 ^F2 | G4 E4- | E4 z2 D2 | D2 D2 F4- | F4 D2 E2- | EDC B,/A,/ B,2 G,2- | %56
w: quel _ _ _ _ che|più vi- e|let- ta|_ che|l'un mi ho-|* no- ra|_ et l'al- tro _ mi di-|
 G,2 F,2 G,4 | z2 D2 E2 C2 | E3 F G4 | G8 | z2 E2 E2 E2 | C2 C2 D4- | D4 B,2 D2 | D2 D2 D2 D2 | %64
w: * let- ta|et l'al- tro|mi di- let-|ta,|et l'al- tro|mi di- let-|* ta, et|l'al- tro mi di-|
 E3 F G4 | E4 z2 E2 | E2 D2 E6 D2 | E8 | D12 |] %69
w: let- * *|ta, et|l'al- tro mi di-|let-|ta.|
V:3
 B3 B B2 c2 | A2 B2 G4 | c3 c c2 c2 | F2 G2 A2 e2 | e2 d2 c4 | d2 G2 G2 G2 | c4 c4 | z2 A2 A2 F2 | %8
w: Di- te mi o|sì, o no,|Di- te mi o|sì, o no, sen-|za ti- mo-|re, ch'og- nun de|vo- i,|non puo- se|
 (G3 A B2) c2- | cB AG A4 | B4 B2 A2 | B2 c2 A4 | G4 z2 B2 | c2 A2 B2 c2 | A2 A2 c4- | c4 z2 d2- | %16
w: non _ _ gio-|* * * * var-|mi, puo- se|non gio- var-|mi, se|se- rà\_u no, un-|no, u- no|_ mi|
 dd d2 c2 c2 | d8 | c3 B A4- | A2 GF G4- | G4 c4- | c2 c2 c4 | B8 | z2 c2 c2 B2 | c2 A2 G2 G2 | %25
w: _ fa- rà grand' ho-|no-||* * * re|_ star|_ con- stan-|te|vo- len- do|voi las- ciar- mi,|
 z2 c2 d2 d2 | c2 z d B2 c2 | B3 c d2 e2 | d4 c4- | c4 z4 | z4 z2 G2- | G2 G2 A2 B2 | c4 d4- | %33
w: vo- len- do|voi, vo- len- do|las- * * *|sciar mi,|_|se|_ se- rà un|si fia'|
 d2 d2 d4- | d4 c3 B | A2 G2 A2 B2 | c6 BA | B4 z2 c2 | c4 c4 | c4 c4- | c2 d4 e2 | c4 d4 | %42
w: l frut- to|_ del _|_ _ lan- *|gui- * *|re, as-|sai più|deg- no|_ che'l mio|bi- en|
 (G3 A) B2 c2 | d2 B2 A4- | A4 G4- | G4 G4- | G4 z4 | z8 | z4 z2 B2 | c2 AB cd e2 | d2 (B2 c2) c2 | %51
w: ser- * vi- re,|ben ser- vi-|* re|_ _|||quel|che _ _ _ _ _|più vi- * e-|
 d4 c4- | c4 z2 B2 | B2 B2 c4- | c4 B2 c2 | c2 c2 d2 e2 | f4 e2 c2 | c2 B2 c2 e2 | c3 d e4 | %59
w: let- ta|_ che|l'un mi ho-|* no- ra|et l'al- tro mi|di- let- ta|l'al- tro mi di-|let- * ta,|
 z2 d2 d2 d2 | e2 c2 cB AG | F2 G2 A4- | A4 G4- | G4 z2 G2 | G2 G2 E2 C2 | G4 C2 c2 | c2 B2 c6 B2 | %67
w: et l'al- tro|mi di- let- * * *||* ta,|_ et|l'al- tro mi di-|let- ta et|l'al- tro mi di-|
 c8 | B12 |] %69
w: let-|ta.|
V:4
 G,3 G, G,2 E,2 | F,2 G,2 C,4- | C,8 | z4 z2 C2 | C2 B,2 A,4 | G,4 z4 | z2 C,2 C,2 C,2 | F,4 F,4 | %8
w: Di- te mi o|sì, o no,|_|sen-|za ti- mo-|re,|ch'og- nun de|do- i,|
 z4 z2 C,2 | C,2 C,2 F,2 D,2 | G,4 G,2 F,2 | E,2 C,2 D,4 | G,4 z2 G,2 | E,2 F,2 G,2 C,2 | %14
w: ch'og-|nun de vo- i,|non puo- se|non gio- var-|mi, se|se- rà\_u no, un-|
 F,2 D,2 C,4- | C,4 z2 G,2- | G,G, G,2 A,2 A,2 | G,8 | C,2 F,3 E, D,C, | D,4 C,4- | C,4 C,4- | %21
w: no, u- no|_ mi|_ fa- rà grand' ho-|no-||* re|_ star|
 C,2 C,2 C,4 | G,8 | z2 C,2 G,2 G,2 | C,2 C4 B,2 | C2 A,2 G,4 | z2 D,2 E,2 C,2 | G,3 A, B,2 C2 | %28
w: _ con- stan-|te|vo- len- do|voi las- ciar-|* * mi,|vo- len- do|las- * * *|
 G,4 C,4- | C,4 z4 | z4 z2 C,2- | C,2 C,2 F,2 G,2 | C,4 G,4- | G,2 G,2 G,4- | G,4 z2 C2- | %35
w: sciar mi,|_|se|_ se- rà un|si fia'|l frut- to|_ del|
 C2 B,2 A,2 G,2 | F,8 | E,4 z2 C,2 | C,4 C,4 | F,8 | C,2 G,2 G,2 E,2 | A,4 G,2 D,2 | %42
w: _ _ _ lan-|gui-|re, as-|sai più|deg-|no as- sai, piu|deg- no che'l|
 E,3 F, G,2 A,2 | F,2 G,2 D,4- | D,4 E,2 C,2- | C,C, C,2 C,2 C,2 | z2 G,4 E,2 | F,2 G,2 A,4- | %48
w: mi- o ben ser-|vi- * *|* re dun-|* que\_e- leg- ge- te,|dun- que|e- leg- ge-|
 A,4 G,4 | z2 C4 C2 | B,2 G,2 A,4 | G,4 C,4- | C,4 z2 G,2 | G,2 G,2 F,4- | F,4 G,2 C,2 | %55
w: * te|quel che|più vi- e-|let- ta|_ che|l'un mi ho-|* no- ra|
 C,2 C,2 G,2 E,2 | D,4 C,4 | G,4 z2 C,2 | C,2 C,2 C,4 | G,8 | z2 C,2 C,2 C,2 | F,2 E,2 D,4- | %62
w: et l'al- tro mi|di- let-|ta, che|l'un mi\_ho- no-|ra|et l'al- tro|mi di let-|
 D,4 G,4 | z2 G,2 G,2 G,2 | E,2 C,2 G,4 | C,4 z2 C,2 | C,2 G,2 C,6 G,2 | C,8 | G,12 |] %69
w: * ta,|et l'al- tro|mi di- let-|ta, et|l'al- tro mi di-|let-|ta.|

